X:1
T:Maggie May
M:4/4
L:1/4
K:D
 F G| A F A B| A2 F- D| G F G B| d2 c B| A A ^G A| B A ^G A| E4-| E2 F- G|\
 A F A B| A2 F D| G A B c| d2 c B| A A c3/2 B/2| A G F E| D4-| D2 d2|\
 B G G G| B2 d2| A A A F| A3 F| A A ^G A| B A F D| E4-| E2 F G| A F A/2 A/2- B|\
 A F2 D| G G G/2 G/2- B| d d c B| A/2 A3/2 c B| A/2 A/2- G F E| D4-|\
 D2||
